X:562
T:Laird of MacNab, The
D:Jim Johnstone, Sound of
Z:Nigel Gatherer
L:1/8
M:6/8
K:A
E    | A>BA c2d | ecA fga | ecA ded | cAF  BGE  |
       A>BA c2d | ecA fga | ecA edB | A3   A2  :|
c/d/ | eaa  faa | eaa faa | efe edc | B2A  GFE  |
       A>BA c2d | ecA fga | ecA edB | A3   A2 :|]
